svg/l/LK.svg

<svg width="32" height="24" viewBox="0 0 32 24" fill="none" xmlns="http://www.w3.org/2000/svg">
<g clip-path="url(#clip0_270_67543)">
<rect width="32" height="24" fill="white"/>
<path fill-rule="evenodd" clip-rule="evenodd" d="M0 0H32V24H0V0Z" fill="#FECA00"/>
<rect x="2" y="2" width="6" height="20" fill="#1F8A6E"/>
<rect x="8" y="2" width="6" height="20" fill="#F56800"/>
<rect x="14" y="2" width="16" height="20" fill="#B01D00"/>
<rect x="12" y="2" width="2" height="20" fill="#E8AA00"/>
<path fill-rule="evenodd" clip-rule="evenodd" d="M17.1005 6.17348C17.1005 6.17348 15.8268 6.16978 15.8268 8.38758V11.6398C15.8268 11.6398 15.2205 11.7479 15.2205 12.1245C15.2205 12.5012 15.349 12.8307 15.5879 12.8307C15.8268 12.8307 16.0657 13.9357 15.8268 13.9357C15.5879 13.9357 15.349 14.4097 15.5879 14.4097C15.645 14.4097 15.6885 14.402 15.7216 14.3961C15.7564 14.3899 15.7797 14.3857 15.7953 14.3948C15.8268 14.4132 15.8268 14.4857 15.8268 14.7049C15.8268 15.1354 15.5879 15.3096 15.5879 15.3096C15.5879 15.3096 15.3629 15.2468 15.3629 15.5002C15.3629 15.7535 15.5879 15.8177 15.5879 15.8177C15.5879 15.8177 15.7167 15.8734 15.4686 15.9933C15.2205 16.1133 15.2205 16.1713 15.2205 16.1713H15.8268L16.1305 16.7269L16.4202 16.1713H17.0187C17.0187 16.1713 16.7173 15.9785 16.682 15.9381C16.6467 15.8977 16.6039 15.8387 16.682 15.7712C16.7048 15.7515 16.7381 15.7364 16.7739 15.7203C16.8609 15.681 16.9624 15.6352 16.9624 15.5002C16.9624 15.3096 16.5803 15.3096 16.5803 15.3096C16.5803 15.3096 16.3472 14.8887 16.4202 14.7049C16.4406 14.6535 16.4522 14.6078 16.4622 14.5686C16.4879 14.4675 16.5026 14.4097 16.628 14.4097C16.802 14.4097 16.9018 14.1901 16.682 13.9357C16.682 13.9357 16.934 14.2065 16.8599 14.5581C16.7859 14.9096 16.9369 15.0688 17.0187 15.0688C17.1005 15.0688 17.2306 14.9479 17.2306 14.9479C17.2306 14.9479 17.9101 15.5554 18.2087 15.5554C18.5073 15.5554 18.9354 15.0688 18.9354 15.0688L19.5501 15.414C19.5501 15.414 20 16.0443 19.9337 16.4776C19.8674 16.9109 19.6109 17.1524 19.3091 17.0854C19.0073 17.0184 18.5164 17.1558 18.4791 17.3427C18.4734 17.371 18.465 17.4055 18.4558 17.4433C18.4041 17.6555 18.3267 17.973 18.5633 17.8946C18.8421 17.8023 18.8967 17.7315 18.8967 17.7315C18.8967 17.7315 18.86 17.8946 19.0846 17.8946C19.3091 17.8946 19.374 17.7315 19.374 17.7315C19.374 17.7315 19.6068 17.8946 19.7703 17.8946C19.9337 17.8946 20.1168 17.769 20.1168 17.769C20.1168 17.769 20.2373 17.9557 20.5038 17.8946C20.7703 17.8336 20.9718 17.138 20.7779 16.9822C20.7779 16.9822 21.4209 16.8889 21.5859 16.33C21.5859 16.33 20.9639 16.3208 21.028 15.9381C21.0921 15.5554 21.4206 15.3096 21.4206 15.3096C21.4206 15.3096 22.3663 14.8517 22.7733 14.7049C23.1802 14.5581 23.8565 14.4097 24.0241 14.4097C24.0923 14.4097 24.141 14.569 24.207 14.7848C24.3032 15.0992 24.4362 15.5339 24.7198 15.7712C25.1982 16.1713 24.872 17.0854 24.872 17.0854C24.872 17.0854 23.8076 17.1926 23.8076 17.4808C23.8076 17.769 23.8247 17.8946 24.0241 17.8946C24.2234 17.8946 24.2194 17.7315 24.2194 17.7315C24.2194 17.7315 24.3377 17.8946 24.5288 17.8946C24.7198 17.8946 24.872 17.7315 24.872 17.7315C24.872 17.7315 24.9228 17.8946 25.1731 17.8946C25.4234 17.8946 25.4216 17.7315 25.4216 17.7315C25.4216 17.7315 25.4667 17.8946 25.6873 17.8946C25.9079 17.8946 26.3607 17.7315 26.3607 17.7315C26.3607 17.7315 26.4317 17.8946 26.6608 17.8946C26.8899 17.8946 26.8953 17.7315 26.8953 17.7315C26.8953 17.7315 27.0176 17.8946 27.2161 17.8946C27.4145 17.8946 27.5308 17.7315 27.5308 17.7315C27.5308 17.7315 27.8161 17.8946 28.0129 17.8946C28.2097 17.8946 28.139 17.6001 28.0129 17.3427C27.981 17.2776 27.9441 17.222 27.9103 17.1712C27.8106 17.0212 27.7388 16.9131 27.9077 16.7269C27.9555 16.6741 28.0103 16.6208 28.0652 16.5674L28.0652 16.5674C28.2698 16.3685 28.4754 16.1685 28.3248 15.9933C28.2801 15.9414 28.2277 15.905 28.175 15.8684C28.0026 15.7486 27.8271 15.6267 27.9077 14.9479C27.956 14.5414 28.0477 14.211 28.1329 13.9042L28.1329 13.9042C28.2334 13.5421 28.3248 13.213 28.3248 12.8307C28.3248 12.1245 27.9077 11.317 27.9077 11.317C27.9077 11.317 28.4693 10.925 28.4693 10.1277C28.4693 9.33044 27.2161 9.24349 27.2161 9.24349C27.2161 9.24349 25.9712 9.56391 25.4216 9.4037C25.2976 9.36754 25.1938 9.34154 25.1074 9.31991L25.1074 9.3199C24.8111 9.24567 24.7198 9.22282 24.7198 9.01741C24.7198 8.75213 24.3198 9.24349 24.3198 9.24349C24.3198 9.24349 24.0062 9.11762 24.2194 8.8572C24.4326 8.59677 24.5288 8.49467 24.5288 8.49467C24.5288 8.49467 24.341 8.2805 24.0241 8.38758C23.7072 8.49467 23.6507 8.67213 23.6507 8.67213C23.6507 8.67213 23.2894 8.30229 23.5145 8.03375C23.7396 7.76521 24.0241 8.03375 24.0241 8.03375C24.0241 8.03375 24.3477 8.20273 24.3738 7.98093C24.3998 7.75912 24.3738 7.58225 24.3738 7.58225C24.3738 7.58225 25.1858 7.81513 24.9563 8.17737C24.7269 8.5396 24.872 8.67213 24.872 8.67213C24.872 8.67213 25.4301 8.70648 25.5309 8.32149C25.5691 8.17589 25.5628 8.03468 25.5349 7.92371C25.6957 7.99945 25.8778 8.0892 25.8269 8.23809C25.7336 8.51163 25.5309 8.8572 25.5309 8.8572C25.5309 8.8572 26.0886 8.8246 26.2548 8.38758C26.421 7.95056 26.3607 8.49467 26.3607 8.49467C26.3607 8.49467 26.5745 8.48707 26.8953 8.67213C27.2161 8.8572 26.8953 8.38758 26.8953 8.38758C26.8953 8.38758 27.5611 9.2132 28.1909 9.1153C28.8207 9.01741 28.7858 8.49467 28.7858 8.49467C28.7858 8.49467 28.6366 8.23809 28.3248 8.23809C28.0129 8.23809 28.1909 8.49467 28.1909 8.49467C28.1909 8.49467 28.495 8.66786 28.0129 8.49467C27.8733 8.44451 27.6649 8.2826 27.4064 8.08168C26.7723 7.58893 25.8363 6.86161 24.872 6.97299C23.5145 7.1298 23.0408 7.73644 23.0408 7.73644V7.23132C23.0408 7.23132 22.8127 7.58225 22.6 7.58225C22.3874 7.58225 21.7968 7.23132 21.7968 7.23132L21.4206 7.58225C21.4206 7.58225 21.2781 7.23132 21.028 7.23132C20.7779 7.23132 20.7779 7.58225 20.7779 7.58225C20.7779 7.58225 20.4633 7.42754 20.1168 7.42754C19.9748 7.42754 19.8541 7.3757 19.761 7.33573C19.6268 7.27813 19.5501 7.24519 19.5501 7.42754C19.5501 7.46455 19.551 7.49987 19.5518 7.53348V7.5335C19.5579 7.78038 19.5616 7.93443 19.2024 7.98093C18.7943 8.03375 18.4791 8.03375 18.4791 8.03375C18.4791 8.03375 18.2348 7.73644 18.0447 7.73644C17.8546 7.73644 17.6344 7.96715 17.6344 8.17737C17.6344 8.38758 17.8806 8.98712 18.0447 9.1153C18.0879 9.14906 18.0799 9.14537 18.0446 9.12914C17.946 9.08373 17.6344 8.9402 17.6344 9.24349C17.6344 9.45258 17.6866 9.50486 17.7247 9.54304C17.7617 9.58004 17.7854 9.6038 17.7356 9.74419C17.7149 9.80262 17.6864 9.87019 17.6567 9.94072C17.5414 10.2145 17.4074 10.5329 17.6344 10.5329C17.757 10.5329 17.8729 10.5059 17.9555 10.4866L17.9555 10.4866C18.0652 10.4611 18.1159 10.4493 18.0447 10.5329C18.0163 10.5662 17.9781 10.6063 17.9396 10.6467C17.8087 10.7841 17.6741 10.9254 17.9071 10.8181C18.0296 10.7617 18.133 10.6799 18.2183 10.6125C18.3431 10.5139 18.429 10.4459 18.4791 10.5329C18.5107 10.5878 18.4853 10.6613 18.4636 10.7243C18.4275 10.8291 18.4013 10.9048 18.664 10.8181C18.7561 10.7877 18.81 10.764 18.84 10.747C18.8413 10.7641 18.8553 10.7878 18.8967 10.8181C18.9848 10.8828 18.9679 10.9442 18.955 10.991C18.9404 11.044 18.9309 11.0786 19.0846 11.0786C19.2316 11.0786 19.4392 10.9646 19.5622 10.897C19.6813 10.8316 19.7211 10.8097 19.5501 10.977C19.4423 11.0824 19.2864 11.1526 19.1133 11.2306C18.7281 11.4042 18.2579 11.6161 18.0447 12.3387C17.7568 13.3142 17.8858 13.5152 17.9049 13.5382L17.0187 12.568C17.0187 12.568 17.2306 12.4024 17.2306 12.1245C17.2306 11.8466 16.682 11.6398 16.682 11.6398C16.682 11.6398 16.7012 8.182 16.8599 7.42754C17.0187 6.67308 17.1005 6.17348 17.1005 6.17348ZM17.9049 13.5382L17.9071 13.5406C17.9071 13.5406 17.9067 13.5403 17.9061 13.5396C17.9058 13.5393 17.9054 13.5388 17.9049 13.5382ZM18.8676 10.7143C18.8576 10.7144 18.8384 10.7253 18.84 10.747C18.8784 10.7252 18.8776 10.7143 18.8676 10.7143ZM25.5349 7.92371L25.5231 7.91818C25.3934 7.85716 25.2817 7.80466 25.3246 7.73644C25.385 7.64056 25.489 7.74127 25.5349 7.92371ZM26.1212 15.4056C26.1212 15.4056 25.7013 15.8175 25.9679 15.908C26.0488 15.9355 26.1472 15.9508 26.2386 15.965C26.4487 15.9977 26.6223 16.0247 26.4631 16.1802C26.2346 16.4034 26.0412 16.705 26.0412 16.9797C26.0412 17.2543 26.0477 17.4862 26.1212 17.3702C26.1616 17.3066 26.3274 17.24 26.5061 17.1682C26.6529 17.1092 26.8083 17.0468 26.9099 16.9797C27.1018 16.8528 27.099 16.7156 27.0941 16.4691C27.0932 16.4265 27.0923 16.3806 27.0923 16.331C27.0923 15.994 26.1212 15.4056 26.1212 15.4056ZM22.863 9.8896C22.9609 9.8118 22.9672 8.85163 22.9672 8.85163C22.9672 8.85163 23.3105 8.96595 23.3105 9.11594C23.3105 9.20934 23.2846 9.26277 23.2453 9.34341C23.2216 9.39226 23.193 9.45109 23.1623 9.53484C23.0869 9.74111 23.2922 9.87033 23.4829 9.99037C23.4974 9.99952 23.5119 10.0086 23.5261 10.0177C23.6554 10.1001 23.6917 9.9213 23.7197 9.78326C23.7353 9.70674 23.7483 9.64275 23.7732 9.64275C23.8429 9.64275 24.3633 9.76072 24.7549 9.95974C25.0967 10.1334 25.432 10.0481 26.2 9.85289C26.3122 9.82436 26.4336 9.79348 26.5657 9.76072C27.6015 9.50374 27.7375 9.8896 27.8437 10.1934C27.9499 10.4972 27.1457 10.9181 26.5657 10.9944C26.3108 11.0279 26.09 11.0173 25.8869 11.0075C25.6278 10.9949 25.3974 10.9838 25.1616 11.0676C24.7921 11.199 23.6365 11.1859 23.1854 11.1808C23.1231 11.1801 23.0743 11.1796 23.0428 11.1796C22.8357 11.1796 22.7966 11.1142 22.7179 10.983C22.698 10.9497 22.6754 10.9121 22.647 10.8703C22.5064 10.6638 22.677 10.5289 22.7875 10.5289C22.898 10.5289 22.863 10.2872 22.7875 10.1934C22.7119 10.0996 22.7652 9.96739 22.863 9.8896Z" fill="#FECA00"/>
<path fill-rule="evenodd" clip-rule="evenodd" d="M14.1712 2.12232V2.48336C14.1712 2.52782 14.152 2.58846 14.1305 2.65643C14.0624 2.87187 13.9709 3.16101 14.3932 3.24227C14.9487 3.34916 15.358 3.59209 15.4824 3.82144C15.5621 3.96841 15.5397 3.7235 15.5132 3.43545V3.43545C15.4984 3.27401 15.4824 3.09903 15.4824 2.97188C15.4824 2.61784 15.0858 1.92793 14.8048 2.12232C14.5238 2.31672 14.1712 2.12232 14.1712 2.12232ZM14.1712 21.5073V21.8683C14.1712 21.8683 14.5238 21.674 14.8048 21.8683C15.0858 22.0627 15.4824 21.3728 15.4824 21.0188C15.4824 20.8916 15.4984 20.7167 15.5132 20.5552C15.5397 20.2672 15.5621 20.0223 15.4824 20.1692C15.358 20.3986 14.9487 20.6415 14.3932 20.7484C13.9709 20.8297 14.0624 21.1188 14.1305 21.3342C14.152 21.4022 14.1712 21.4628 14.1712 21.5073ZM29.8356 21.5073V21.8683C29.8356 21.8683 29.4831 21.674 29.2021 21.8683C28.921 22.0627 28.5245 21.3728 28.5245 21.0188C28.5245 20.8916 28.5084 20.7167 28.4936 20.5553L28.4936 20.5552C28.4672 20.2672 28.4447 20.0223 28.5245 20.1692C28.6489 20.3986 29.0581 20.6415 29.6137 20.7484C30.036 20.8297 29.9445 21.1188 29.8763 21.3342C29.8548 21.4022 29.8356 21.4628 29.8356 21.5073ZM29.8356 2.48336V2.12232C29.8356 2.12232 29.4831 2.31672 29.2021 2.12232C28.921 1.92793 28.5245 2.61784 28.5245 2.97188C28.5245 3.09903 28.5084 3.27402 28.4936 3.43545C28.4672 3.7235 28.4447 3.96841 28.5245 3.82144C28.6489 3.59209 29.0581 3.34916 29.6137 3.24227C30.036 3.16101 29.9445 2.87187 29.8763 2.65643C29.8548 2.58846 29.8356 2.52782 29.8356 2.48336Z" fill="#FECA00"/>
</g>
<defs>
<clipPath id="clip0_270_67543">
<rect width="32" height="24" fill="white"/>
</clipPath>
</defs>
</svg>

<svg width="32" height="24" fill="none" xmlns="http://www.w3.org/2000/svg">
  <mask id="a" maskUnits="userSpaceOnUse" x="0" y="0" width="32" height="24">
    <path fill="#fff" d="M0 0h32v24H0z"/>
  </mask>
  <g mask="url(#a)">
    <path fill-rule="evenodd" clip-rule="evenodd" d="M0 0h32v24H0V0z" fill="#FECA00"/>
    <path fill="#1F8A6E" d="M2 2h6v20H2z"/>
    <path fill="#F56800" d="M8 2h6v20H8z"/>
    <path fill="#B01D00" d="M14 2h16v20H14z"/>
    <path fill="#E8AA00" d="M12 2h2v20h-2z"/>
    <path fill-rule="evenodd" clip-rule="evenodd" d="M17.1 6.173s-1.273-.003-1.273 2.215v3.252s-.607.108-.607.484c0 .377.129.707.368.707s.478 1.105.239 1.105c-.24 0-.478.474-.24.474.058 0 .101-.008.135-.014s.058-.01.073-.001c.032.018.032.09.032.31 0 .43-.24.605-.24.605s-.224-.063-.224.19c0 .254.225.318.225.318s.129.055-.12.175c-.248.12-.248.178-.248.178h.607l.304.556.29-.556h.598s-.302-.192-.337-.233c-.035-.04-.078-.1 0-.167a.39.39 0 01.092-.05c.087-.04.188-.086.188-.22 0-.191-.382-.191-.382-.191s-.233-.421-.16-.605c.02-.052.032-.097.042-.136.026-.102.04-.16.166-.16.174 0 .274-.219.054-.473 0 0 .252.27.178.622-.074.352.077.51.159.51s.212-.12.212-.12.68.607.978.607c.298 0 .726-.486.726-.486l.615.345s.45.63.384 1.064c-.067.433-.323.674-.625.607-.302-.067-.793.07-.83.258l-.023.1c-.052.212-.13.53.107.452.28-.093.334-.163.334-.163s-.037.163.188.163c.224 0 .289-.163.289-.163s.233.163.396.163c.164 0 .347-.126.347-.126s.12.187.387.126c.266-.061.468-.757.274-.913 0 0 .643-.093.808-.652 0 0-.622-.01-.558-.392.064-.383.393-.628.393-.628s.945-.458 1.352-.605c.407-.147 1.084-.295 1.251-.295.068 0 .117.159.183.375.096.314.23.749.513.986.478.4.152 1.314.152 1.314s-1.064.108-1.064.396c0 .288.017.414.216.414.2 0 .195-.163.195-.163s.119.163.31.163c.19 0 .343-.163.343-.163s.05.163.301.163c.25 0 .249-.163.249-.163s.045.163.265.163c.22 0 .674-.163.674-.163s.07.163.3.163c.229 0 .234-.163.234-.163s.123.163.321.163a.417.417 0 00.315-.163s.285.163.482.163.126-.295 0-.552a1.483 1.483 0 00-.103-.172c-.1-.15-.171-.258-.002-.444.047-.053.102-.106.157-.16.205-.198.41-.398.26-.574a.754.754 0 00-.15-.125c-.172-.12-.348-.241-.267-.92a6.64 6.64 0 01.225-1.044c.1-.362.192-.691.192-1.073 0-.707-.417-1.514-.417-1.514s.561-.392.561-1.19c0-.797-1.253-.884-1.253-.884s-1.245.32-1.794.16a8.033 8.033 0 00-.315-.083c-.296-.074-.387-.097-.387-.303 0-.265-.4.226-.4.226s-.314-.125-.1-.386c.213-.26.309-.362.309-.362s-.188-.214-.505-.107-.373.284-.373.284-.362-.37-.136-.638c.225-.269.51 0 .51 0s.323.169.349-.053c.026-.222 0-.399 0-.399s.812.233.582.595c-.23.363-.084.495-.084.495s.558.034.659-.35a.811.811 0 00.004-.398c.16.075.343.165.292.314-.093.274-.296.62-.296.62s.558-.033.724-.47c.166-.437.106.107.106.107s.213-.008.534.177c.321.185 0-.284 0-.284s.666.825 1.296.727c.63-.098.595-.62.595-.62s-.15-.257-.461-.257c-.312 0-.134.257-.134.257s.304.173-.178 0c-.14-.05-.348-.212-.607-.413-.634-.493-1.57-1.22-2.534-1.109-1.357.157-1.831.763-1.831.763v-.505s-.228.351-.441.351-.803-.35-.803-.35l-.376.35s-.143-.35-.393-.35-.25.35-.25.35-.315-.154-.661-.154a.888.888 0 01-.356-.092c-.134-.058-.21-.09-.21.092v.105c.007.247.01.401-.349.448-.408.053-.723.053-.723.053s-.244-.298-.434-.298-.41.231-.41.441.246.81.41.938c.043.034.035.03 0 .014-.099-.045-.41-.189-.41.114 0 .21.052.262.09.3.037.037.06.06.01.201-.02.059-.049.126-.078.197-.116.273-.25.592-.023.592.123 0 .239-.027.322-.046.11-.026.16-.038.089.046a3.063 3.063 0 01-.105.114c-.131.137-.266.278-.033.171.123-.056.226-.138.311-.205.125-.1.211-.167.261-.08.032.055.006.128-.015.191-.037.105-.063.18.2.094.092-.03.146-.054.176-.071.001.017.015.04.057.071.088.065.07.126.058.173-.015.053-.024.088.13.088.147 0 .354-.114.477-.182.12-.065.16-.087-.012.08-.108.105-.264.176-.437.254-.385.173-.855.385-1.068 1.108-.288.975-.16 1.176-.14 1.2l-.886-.971s.212-.166.212-.444c0-.277-.549-.484-.549-.484s.02-3.458.178-4.212c.159-.755.24-1.255.24-1.255zm.805 7.365l.002.003v-.001l-.002-.002zm.963-2.824a.03.03 0 00-.028.033c.038-.022.038-.033.028-.033zm6.667-2.79l-.012-.006c-.13-.06-.241-.113-.198-.182.06-.095.164.005.21.188zm.586 7.482s-.42.412-.153.502c.08.027.18.043.27.057.21.033.384.06.225.215-.228.223-.422.525-.422.8 0 .274.007.506.08.39.04-.063.206-.13.385-.202.147-.059.302-.121.404-.188.192-.127.189-.264.184-.51l-.002-.139c0-.337-.97-.925-.97-.925zM22.863 9.89c.098-.078.104-1.038.104-1.038s.344.114.344.264a.46.46 0 01-.066.227c-.023.05-.052.108-.083.192-.075.206.13.335.32.455l.044.028c.13.082.166-.097.194-.235.015-.076.028-.14.053-.14.07 0 .59.118.982.317.342.173.677.088 1.445-.107.112-.029.234-.06.366-.092 1.036-.257 1.172.129 1.278.432.106.304-.698.725-1.278.801a3.629 3.629 0 01-.68.014c-.258-.013-.489-.024-.724.06-.37.131-1.525.118-1.977.113l-.142-.001c-.207 0-.246-.066-.325-.197a2.205 2.205 0 00-.071-.113c-.14-.206.03-.341.14-.341.111 0 .076-.242 0-.336-.075-.093-.022-.226.076-.303zm-8.692-7.768v.361c0 .045-.019.105-.04.173-.069.216-.16.505.262.586.556.107.965.35 1.09.58.08.146.057-.099.03-.387a5.742 5.742 0 01-.03-.463c0-.354-.397-1.044-.678-.85-.281.195-.634 0-.634 0zm0 19.385v.361s.353-.194.634 0c.28.195.677-.495.677-.85 0-.126.016-.301.031-.463.027-.288.05-.533-.03-.386-.125.23-.534.473-1.09.58-.422.08-.33.37-.263.585a.657.657 0 01.041.173zm15.665 0v.361s-.353-.194-.634 0c-.281.195-.678-.495-.678-.85 0-.126-.016-.301-.03-.463-.027-.288-.05-.533.03-.386.125.23.534.473 1.09.58.422.08.33.37.262.585-.021.068-.04.129-.04.173zm0-19.024v-.36s-.353.194-.634 0c-.281-.195-.678.495-.678.849 0 .127-.016.302-.03.463-.027.288-.05.533.03.386.125-.229.534-.472 1.09-.579.422-.081.33-.37.262-.586-.021-.068-.04-.128-.04-.173z" fill="#FECA00"/>
  </g>
</svg>
